symbolic/64x64/apps/ksnip.svg

<svg xmlns="http://www.w3.org/2000/svg" width="64" height="64" version="1">
 <rect style="opacity:0.2" width="56" height="56" x="4" y="5" rx="4.2" ry="4.2"/>
 <rect style="fill:#533f3f" width="56" height="56" x="4" y="4" rx="4.2" ry="4.2"/>
 <path style="opacity:0.2" d="M 54,54.988305 43.001429,44 v 10.988305 z"/>
 <path style="fill:#008052" d="M 54,53.988305 43.001429,43 v 10.988305 z"/>
 <path style="opacity:0.2" d="M 43,33 54,22 H 43 Z"/>
 <path style="fill:#005680" d="M 43,32 54,21 H 43 Z"/>
 <rect style="fill:#f02e00" width="11" height="25.2" x="21" y="19.4"/>
 <path style="opacity:0.2" d="M 10,11 32,33 V 11 Z"/>
 <path style="fill:#ffb900" d="M 10,10 32,32 V 10 Z"/>
 <path style="opacity:0.2" d="M 32,33 10,55 h 22 z"/>
 <path style="fill:#ff8900" d="M 32,32 10,54 h 22 z"/>
 <path style="fill:#006c80" d="M 54,43 43,32 v 11 z"/>
 <path style="opacity:0.2" d="M 43,44.011701 53.998569,55 V 44.011701 Z"/>
 <path style="fill:#00aa80" d="M 43,43.011701 53.998569,54 V 43.011701 Z"/>
 <path style="opacity:0.2" d="M 43,22 32,33 h 11 z"/>
 <path style="fill:#008900" d="M 43,21 32,32 h 11 z"/>
 <path style="opacity:0.2" d="M 54,11 43,22 h 11 z"/>
 <path style="fill:#008080" d="M 54,10 43,21 h 11 z"/>
 <path style="fill:#ffffff;opacity:0.1" d="M 8.1992188 4 C 5.8724189 4 4 5.8724189 4 8.1992188 L 4 9.1992188 C 4 6.8724189 5.8724189 5 8.1992188 5 L 55.800781 5 C 58.127581 5 60 6.8724189 60 9.1992188 L 60 8.1992188 C 60 5.8724189 58.127581 4 55.800781 4 L 8.1992188 4 z"/>
 <path style="opacity:0.2;fill:#ffffff" d="M 10 10 L 11 11 L 32 11 L 32 10 L 10 10 z M 54 10 L 43 21 L 44 21 L 54 11 L 54 10 z M 43 21 L 32 32 L 33 32 L 43 22 L 43 21 z M 31.5 32.5 L 10 54 L 11 54 L 32 33 L 31.5 32.5 z M 43 43.011719 L 44 44.011719 L 53.998047 44.011719 L 53.998047 43.011719 L 43 43.011719 z"/>
 <path style="opacity:0.1;fill:#ffffff" d="M 43 32 L 43 33 L 53 43 L 54 43 L 43 32 z"/>
</svg>

<svg xmlns="http://www.w3.org/2000/svg" width="64" height="64" version="1"><rect style="opacity:.2" width="56" height="56" x="4" y="5" rx="4.2" ry="4.2"/><rect style="fill:#533f3f" width="56" height="56" x="4" y="4" rx="4.2" ry="4.2"/><path style="opacity:.2" d="M54 54.988 43.001 44v10.988z"/><path style="fill:#008052" d="M54 53.988 43.001 43v10.988z"/><path style="opacity:.2" d="m43 33 11-11H43z"/><path style="fill:#005680" d="m43 32 11-11H43z"/><path style="fill:#f02e00" d="M21 19.4h11v25.2H21z"/><path style="opacity:.2" d="m10 11 22 22V11z"/><path style="fill:#ffb900" d="m10 10 22 22V10z"/><path style="opacity:.2" d="M32 33 10 55h22z"/><path style="fill:#ff8900" d="M32 32 10 54h22z"/><path style="fill:#006c80" d="M54 43 43 32v11z"/><path style="opacity:.2" d="M43 44.012 53.999 55V44.012z"/><path style="fill:#00aa80" d="M43 43.012 53.999 54V43.012z"/><path style="opacity:.2" d="M43 22 32 33h11z"/><path style="fill:#008900" d="M43 21 32 32h11z"/><path style="opacity:.2" d="M54 11 43 22h11z"/><path style="fill:teal" d="M54 10 43 21h11z"/><path style="fill:#fff;opacity:.1" d="M8.2 4A4.19 4.19 0 0 0 4 8.2v1A4.19 4.19 0 0 1 8.2 5h47.6A4.19 4.19 0 0 1 60 9.2v-1A4.19 4.19 0 0 0 55.8 4H8.2z"/><path style="opacity:.2;fill:#fff" d="m10 10 1 1h21v-1H10zm44 0L43 21h1l10-10v-1zM43 21 32 32h1l10-10v-1zM31.5 32.5 10 54h1l21-21-.5-.5zM43 43.012l1 1h9.998v-1H43z"/><path style="opacity:.1;fill:#fff" d="M43 32v1l10 10h1L43 32z"/></svg>
